X: 26
T: Kesh, The
Z: GaryAMartin
S: https://thesession.org/tunes/55#setting48724
R: jig
M: 6/8
L: 1/8
K: Gmaj
~G3 GAB|~A3 AGE|GBd gdB|~A3 AGE|
~G3 GAB|ABA AGE|GBd gdB|AGE G3||
~G3 GAB|~A3 AGE|GBd gdB|~A3 dcA|
~G3 GAB|~A3 AGE|GBd gdB|AGE G2 A||
|:~B3 dBd|ege dBG|BAB dBd|edB A2 A|
BAB dBd|ege dBd|g3 aga|1 bgf g2 d:|2 bgf gdB||

